!!!!SEGMENT: pl-cz--iii-685--009_volckmer-augustin--missa-ex-b-agn-dei.krn
!!!cenid: 17xx:1195
!!!COM: Volckmer, Augustin
!!!COM-rismid: pe30020656
!!!CDT: 1755-~1820
!!!CNT:
!!!OPR: Missa ex B
!!!OTL: Agnus Dei
!!!OMV: 009
!!!PDT:
!!!AGN: Sacred; Mass
!!!SMS-siglum: PL-CZ
!!!SMS-shelfmark: III-685
!!!SMS-shelfwork: 001-009 M
!!!SMS-variant:
!!!SMS-altvar:
!!!NIFC-rismid: 300001397
!!!URL-scan: http://repozytorium.nifc.pl/skany/pl-cz-nut--iii-685
!!!ONB-nifc: UWAGA: części Mszy: Kyrie, Gloria, Graduale (instrumentalne), Credo, Eia chori jubilemus, Sanctus, Pleni, Benedictus, Agnus Dei, Dona nobis, Tantum ergo sacramentum
!!!AIN: 1 alto 1 bass 2 clars 2 cor 1 organ 1 soprn 1 tenor 1 viola 2 violn
!!!key: B-
**kern	**fba	**dynam	**kern	**dynam	**kern	**dynam	**kern	**dynam	**kern	**text	**kern	**text	**kern	**text	**kern	**text	**dynam	**kern	**dynam	**kern	**dynam	**kern	**dynam	**kern	**dynam
*	*	*	*group4	*	*group4	*	*group4	*	*group3	*	*group3	*	*group3	*	*group3	*	*	*group2	*	*group2	*	*group1	*	*group1	*
*staff12	*	*	*staff11	*	*staff10	*	*staff9	*	*staff8	*staff8	*staff7	*staff7	*staff6	*staff6	*staff5	*staff5	*	*staff4	*	*staff3	*	*staff2	*	*staff1	*
*I"Organo. e Fagotti.	*	*	*I"Viola. obl.	*	*I"Violino Secundo.	*	*I"Violino Primo.	*	*I"Basso	*	*I"Tenore	*	*I"Alto	*	*I"Canto	*	*	*I"Corno. Secundo in B Baſson	*	*I"Corno Primo. in B Baſson.	*	*I"Clarinetto Secundo	*	*I"Clarinetto Primo.	*
*I'org e fag	*	*	*I'vla	*	*I'vl 2	*	*I'vl 1	*	*I'B	*	*I'T	*	*I'A	*	*I'S	*	*	*I'cor 2	*	*I'cor 1	*	*I'cl 2	*	*I'cl 1	*
*Iorgan	*	*	*Iviola	*	*Ivioln	*	*Ivioln	*	*Ibass	*	*Itenor	*	*Ialto	*	*Isoprn	*	*	*Icor	*	*Icor	*	*Iclars	*	*Iclars	*
*Ifagot	*	*	*	*	*	*	*	*	*	*	*	*	*	*	*	*	*	*	*	*	*	*	*	*	*
*ICklav	*	*	*ICstr	*	*ICstr	*	*ICstr	*	*ICvox	*	*ICvox	*	*ICvox	*	*ICvox	*	*	*ICbras	*	*ICbras	*	*ICww	*	*ICww	*
*ICww	*	*	*	*	*	*	*	*	*	*	*	*	*	*	*	*	*	*	*	*	*	*	*	*	*
*	*	*	*	*	*	*	*	*	*IGcoro	*	*IGcoro	*	*IGcoro	*	*IGcoro	*	*	*	*	*	*	*	*	*	*
*clefF4	*	*	*clefC3	*	*clefG2	*	*clefG2	*	*clefF4	*	*clefC4	*	*clefC3	*	*clefC1	*	*	*clefG2	*	*clefG2	*	*clefG2	*	*clefG2	*
*	*	*	*	*	*	*	*	*	*	*	*	*	*	*	*	*	*	*ITrd1c2	*	*ITrd1c2	*	*ITrd1c2	*	*ITrd1c2	*
*k[b-e-]	*	*	*k[b-e-]	*	*k[b-e-]	*	*k[b-e-]	*	*k[b-e-]	*	*k[b-e-]	*	*k[b-e-]	*	*k[b-e-]	*	*	*k[b-e-]	*	*k[b-e-]	*	*k[b-e-]	*	*k[b-e-]	*
*B-:	*	*	*B-:	*	*B-:	*	*B-:	*	*B-:	*	*B-:	*	*B-:	*	*B-:	*	*	*	*	*	*	*	*	*	*
*M3/4	*	*	*M3/4	*	*M3/4	*	*M3/4	*	*M3/4	*	*M3/4	*	*M3/4	*	*M3/4	*	*	*M3/4	*	*M3/4	*	*M3/4	*	*M3/4	*
=1	=1	=1	=1	=1	=1	=1	=1	=1	=1	=1	=1	=1	=1	=1	=1	=1	=1	=1	=1	=1	=1	=1	=1	=1	=1
*	*	*	*2\right	*	*	*	*	*	*	*	*	*	*	*	*	*	*	*	*	*	*	*	*	*	*
!LO:TX:a:i:t=Adagio per expreſsivo.	!	!	!	!	!	!	!LO:TX:a:t=Adagio per expreſsivo	!	!LO:TX:a:t=Adagio. per expreſsivo	!	!LO:TX:a:t=Adagio per expreſsivo	!	!LO:TX:a:t=Adagio per expreſsivo	!	!LO:TX:a:t=Adagio per expreſsivo	!	!	!	!	!LO:TX:a:t=in B	!	!	!	!	!
!LO:TX:b:i:t=Solo	!	!	!LO:TX:a:t=Adagio per expreſsivo	!LO:DY:t=poco forto	!LO:TX:a:t=Adagio per expreſsivo	!LO:DY:t=poco forto	!	!LO:DY:t=poco forto	!LO:TX:a:t=23	!	!LO:TX:a:t=7	!	!LO:TX:a:t=7	!	!LO:TX:a:t=23	!	!	!LO:TX:a:t=Adagio. per expressivo	!	!LO:TX:a:t=Adagio per expressivo	!	!LO:TX:a:t=Adagio per expressivo	!LO:DY:rj	!LO:TX:a:t=Adagio per expressivo	!LO:DY:t=poco forto
2BB-/	5 3	.	2f\	f	(2d/	f	(4f/	f	0.r	.	0.r	.	0.r	.	0.r	.	.	4B-/	.	4b-\	.	4B-/	p	4f/	f
.	.	.	.	.	.	.	4dd\	.	.	.	.	.	.	.	.	.	.	4r	.	4r	.	4b-\	.	4dd\	.
4C/	6 3	.	4f\	.	4e-/)	.	4a/)	.	.	.	.	.	.	.	.	.	.	4f/	.	4cc\	.	4e-/	.	4a\	.
=2	=2	=2	=2	=2	=2	=2	=2	=2	=2	=2	=2	=2	=2	=2	=2	=2	=2	=2	=2	=2	=2	=2	=2	=2	=2
4D\	6 3	.	4d\	.	4f|/	.	4b-|\	.	.	.	.	.	.	.	.	.	.	4b-\	.	4dd\	.	4f/	.	4b-|\	.
4AA/	3_ 6_	.	4a\	.	4f|/	.	4cc|\	.	.	.	.	.	.	.	.	.	.	4f/	.	4cc\	.	4f/	.	4cc|\	.
8r	.	.	8r	.	8r	.	8r	.	.	.	.	.	.	.	.	.	.	4r	.	4r	.	8r	.	8r	.
8AA/	x x	.	8f\	.	8f/	.	8cc|\	.	.	.	.	.	.	.	.	.	.	.	.	.	.	8f/	.	8cc\	.
=3	=3	=3	=3	=3	=3	=3	=3	=3	=3	=3	=3	=3	=3	=3	=3	=3	=3	=3	=3	=3	=3	=3	=3	=3	=3
4BB-/	3	.	4f\	.	(4b-\	.	(4dd\	.	.	.	.	.	.	.	.	.	.	4B-/	.	4b-\	.	(4b-\	.	(4dd\	.
4E-\	5 3	.	4g\	.	4g\	.	4b-\	.	.	.	.	.	.	.	.	.	.	4r	.	4r	.	4g\)	.	4b-\	.
4C/	8 6	.	4g\	.	4cc\)	.	4ee-\)	.	.	.	.	.	.	.	.	.	.	4r	.	4r	.	4cc|\	.	4ee-\)	.
=4	=4	=4	=4	=4	=4	=4	=4	=4	=4	=4	=4	=4	=4	=4	=4	=4	=4	=4	=4	=4	=4	=4	=4	=4	=4
4F\	6 4	.	4f\	.	4b-\	.	4dd|\	.	.	.	.	.	.	.	.	.	.	4b-\	.	4dd\	.	4b-|\	.	4dd|\	.
4C\	8_ 6_	.	4f\	.	4a\	.	4cc|\	.	.	.	.	.	.	.	.	.	.	4f/	.	4cc\	.	4a|\	.	4cc|\	.
4FF/	x x	.	4r	.	4r	.	4r	.	.	.	.	.	.	.	.	.	.	4r	.	4r	.	4r	.	4r	.
=5	=5	=5	=5	=5	=5	=5	=5	=5	=5	=5	=5	=5	=5	=5	=5	=5	=5	=5	=5	=5	=5	=5	=5	=5	=5
*	*	*	*	*	*	*	*	*	*	*	*	*	*	*	*	*	*	*	*	*2\right	*	*	*	*	*
2FF/	5 3	.	2f\	.	(4a\	.	(4cc\	.	0.r	.	1.r	.	1.r	.	0.r	.	.	2f/	.	2cc\	.	(4a\	.	(4cc\	.
.	6 4	.	.	.	4b-\	.	4dd\	.	.	.	.	.	.	.	.	.	.	.	.	.	.	4b-\	.	4dd\	.
4E-\	8 6	.	4f\	.	4cc\)	.	4ee-\)	.	.	.	.	.	.	.	.	.	.	4r	.	4r	.	4cc\)	.	4ee-\)	.
=6	=6	=6	=6	=6	=6	=6	=6	=6	=6	=6	=6	=6	=6	=6	=6	=6	=6	=6	=6	=6	=6	=6	=6	=6	=6
!	!	!	!	!	!	!	!	!	!	!	!	!	!	!	!	!	!	!LO:TX:a:t=1	!	!LO:TX:a:t=1	!	!	!	!	!
4D\	3	.	(4f\	.	8.dd\L	.	8.ffT\L	.	.	.	.	.	.	.	.	.	.	2.r	.	2.r	.	4dd\	.	4ff\	.
.	.	.	.	.	(32cc\LL	.	(32een\LL	.	.	.	.	.	.	.	.	.	.	.	.	.	.	.	.	.	.
.	.	.	.	.	32dd\JJJ)	.	32ff\JJJ)	.	.	.	.	.	.	.	.	.	.	.	.	.	.	.	.	.	.
4BB-/	6 4	.	4b-\)	.	(8ee-\L	.	(8gg\L	.	.	.	.	.	.	.	.	.	.	.	.	.	.	(8ee-\L	.	(8gg\L	.
.	5 3	.	.	.	8dd\)	.	8ff\)	.	.	.	.	.	.	.	.	.	.	.	.	.	.	8dd\	.	8ff\)	.
4G\	6 4	.	4g|\	.	8cc|\	.	8ee-X|\	.	.	.	.	.	.	.	.	.	.	.	.	.	.	8cc\	.	8ee-|\	.
.	5 3	.	.	.	8b-|\J	.	8dd|\J	.	.	.	.	.	.	.	.	.	.	.	.	.	.	8b-\J)	.	8dd|\J	.
!	!	!	!	!	!	!	!LO:LB:g=original	!	!	!	!	!	!	!	!	!	!	!	!	!	!	!	!	!	!
=7	=7	=7	=7	=7	=7	=7	=7	=7	=7	=7	=7	=7	=7	=7	=7	=7	=7	=7	=7	=7	=7	=7	=7	=7	=7
4E-\	7 2	.	4g\	.	(8f/L	.	(8dd\L	.	.	.	2.r	.	2.r	.	.	.	.	4r	.	4r	.	8f/L	.	(8dd\L	.
.	6 1	.	.	.	8e-/J)	.	8cc\J)	.	.	.	.	.	.	.	.	.	.	.	.	.	.	8e-/J	.	8cc\J)	.
4F\	4 6	.	4f\	.	4d/	.	4b-\	.	.	.	.	.	.	.	.	.	.	4b-\	.	4dd\	.	4d/	.	4b-\	.
4FF/	7 5	.	4f\	.	4c/	.	4a/	.	.	.	.	.	.	.	.	.	.	4a\	.	4cc\	.	4c/	.	4a\	.
=8	=8	=8	=8	=8	=8	=8	=8	=8	=8	=8	=8	=8	=8	=8	=8	=8	=8	=8	=8	=8	=8	=8	=8	=8	=8
*	*	*	*	*	*	*	*2\right	*	*	*	*2\right	*	*2\right	*	*	*	*	*	*	*	*	*	*	*	*
!	!	!	!	!	!	!	!	!	!	!	!	!	!	!	!	!	!	!	!	!	!	!LO:TX:a:t=8	!	!LO:TX:a:t=8	!
!	!	!	!LO:TX:t=P:problem:takt niewidoczny - zalanie karty	!	!	!LO:DY:t=piano	!	!	!	!	!	!	!	!	!	!	!	!	!	!	!	!	!	!	!
4BB-/	3	p	2.e-\yy	.	2f/	p	(2dd\	p	.	.	2d\	A-	2f\	A-	.	.	.	4d/	.	4b-\	.	0.r	.	0.r	.
!LO:TX:b:i:t=vox	!	!	!	!	!	!	!	!	!	!	!	!	!	!	!	!	!	!	!	!	!	!	!	!	!
4D\	.	.	.	.	.	.	.	.	.	.	.	.	.	.	.	.	.	4r	.	4r	.	.	.	.	.
!	!	!	!	!	!	!	!LO:TX:b:i:t=vox	!	!	!	!	!	!	!	!	!	!	!	!	!	!	!	!	!	!
4F\	.	.	.	.	4e-/	.	8cc\L	.	.	.	(8c\L	-gnus	4e-\	-gnus	.	.	.	4r	.	4r	.	.	.	.	.
.	.	.	.	.	.	.	8a\J)	.	.	.	8A\J)	.	.	.	.	.	.	.	.	.	.	.	.	.	.
!LO:LB:g=original	!	!	!	!	!	!	!	!	!	!	!	!	!	!	!	!	!	!	!	!	!	!	!	!	!
=9	=9	=9	=9	=9	=9	=9	=9	=9	=9	=9	=9	=9	=9	=9	=9	=9	=9	=9	=9	=9	=9	=9	=9	=9	=9
!	!	!	!	!	!	!	!	!	!	!	!	!	!	!	!	!	!	!LO:TX:a:t=7	!	!LO:TX:a:t=7	!	!	!	!	!
4B-\	3	.	4B-/	.	(8e-/L	.	(8cc\L	.	0.r	.	8c\L	De-	8e-\L	De-	0.r	.	.	0.r	.	0.r	.	.	.	.	.
.	.	.	.	.	8d/J)	.	8b-\J)	.	.	.	8B-\J	.	8d\J	.	.	.	.	.	.	.	.	.	.	.	.
4BB-/	.	.	4B-/	.	4d/	.	4b-\	.	.	.	4B-\	-i	4d\	-i	.	.	.	.	.	.	.	.	.	.	.
4r	.	.	4B-/	.	(8a\L	.	(8cc\L	.	.	.	4r	.	4r	.	.	.	.	.	.	.	.	.	.	.	.
.	.	.	.	.	8b-\J)	.	8dd\J)	.	.	.	.	.	.	.	.	.	.	.	.	.	.	.	.	.	.
=10	=10	=10	=10	=10	=10	=10	=10	=10	=10	=10	=10	=10	=10	=10	=10	=10	=10	=10	=10	=10	=10	=10	=10	=10	=10
*	*	*	*	*	*2\right	*	*	*	*	*	*	*	*	*	*	*	*	*	*	*	*	*	*	*	*
!	!	!	!LO:TX:t=P:problem:takt niewidoczny - zalanie karty	!	!	!	!	!	!	!	!	!	!	!	!	!	!	!	!	!	!	!	!	!	!
4FF/	7 5	.	2.B-/yy	.	2cc\	.	2ee-\	.	.	.	2e-\	A-	2cc\	A-	.	.	.	.	.	.	.	.	.	.	.
4AA/	.	.	.	.	.	.	.	.	.	.	.	.	.	.	.	.	.	.	.	.	.	.	.	.	.
4BB-/	3	.	.	.	(8b-\L	.	(8dd\L	.	.	.	(8d\L	-gnus	(8b-\L	-gnus	.	.	.	.	.	.	.	.	.	.	.
.	.	.	.	.	8cc\J)	.	8ee-\J)	.	.	.	8e-\J)	.	8cc\J)	.	.	.	.	.	.	.	.	.	.	.	.
!	!	!	!LO:LB:g=original	!	!LO:LB:g=original	!	!	!	!	!	!	!	!	!	!	!	!	!	!	!	!	!	!	!	!
=11	=11	=11	=11	=11	=11	=11	=11	=11	=11	=11	=11	=11	=11	=11	=11	=11	=11	=11	=11	=11	=11	=11	=11	=11	=11
4F\	3	.	4f\	.	(8b-\L	.	8dd\L	.	.	.	(8d\L	De-	8b-\L	De-	.	.	.	.	.	.	.	.	.	.	.
.	.	.	.	.	8a\J)	.	8cc\J	.	.	.	8c\J)	.	8a\J	.	.	.	.	.	.	.	.	.	.	.	.
!	!	!	!	!	!	!	!LO:TX:t=P:problem:mixed beam	!	!	!	!	!	!	!	!	!	!	!	!	!	!	!	!	!	!
4FF/	.	.	4f\	.	4a\	.	8cc\L	.	.	.	4c\	-i	4a\	-i	.	.	.	.	.	.	.	.	.	.	.
.	.	.	.	.	.	.	8f|/	.	.	.	.	.	.	.	.	.	.	.	.	.	.	.	.	.	.
4r	.	.	4r	.	4r	.	8b-|/	.	.	.	4r	.	4r	.	.	.	.	.	.	.	.	.	.	.	.
.	.	.	.	.	.	.	8dd|/J	.	.	.	.	.	.	.	.	.	.	.	.	.	.	.	.	.	.
=12	=12	=12	=12	=12	=12	=12	=12	=12	=12	=12	=12	=12	=12	=12	=12	=12	=12	=12	=12	=12	=12	=12	=12	=12	=12
4BB-/	5 3	.	4B-/	.	2dd\	.	4.ff\	.	.	.	4.f\	qui	(2dd\	qui	.	.	.	.	.	.	.	0.r	.	0.r	.
4D/	.	.	4d\	.	.	.	.	.	.	.	.	.	.	.	.	.	.	.	.	.	.	.	.	.	.
.	.	.	.	.	.	.	8gg|\	.	.	.	8g\	.	.	.	.	.	.	.	.	.	.	.	.	.	.
4F\	6 4	.	4f\	.	8cc\L	.	(8ee-\L	.	.	.	(8e-\L	.	8cc\L	.	.	.	.	.	.	.	.	.	.	.	.
.	.	.	.	.	8dd\J	.	8ff\J)	.	.	.	8f\J)	.	8dd\J)	.	.	.	.	.	.	.	.	.	.	.	.
=13	=13	=13	=13	=13	=13	=13	=13	=13	=13	=13	=13	=13	=13	=13	=13	=13	=13	=13	=13	=13	=13	=13	=13	=13	=13
*2\right	*	*	*	*	*	*	*	*	*	*	*	*	*	*	*	*	*	*	*	*	*	*	*	*	*
2G\	5 3	.	4g\	.	(8cc\L	.	(8ee-\L	.	0.r	.	8e-\	tol-	(8cc\L	tol-	0.r	.	.	1.r	.	1.r	.	.	.	.	.
.	.	.	.	.	8b-\J)	.	8dd\J)	.	.	.	4d\	-lis	8b-\J	.	.	.	.	.	.	.	.	.	.	.	.
.	.	.	4g\	.	4b-\	.	8dd|\L	.	.	.	.	.	4b-\)	.	.	.	.	.	.	.	.	.	.	.	.
.	.	.	.	.	.	.	8ff|\J	.	.	.	8f\	tol-	.	.	.	.	.	.	.	.	.	.	.	.	.
!	!	!	!	!	!	!	!	!	!	!	!LO:LB:g=original	!	!	!	!	!	!	!	!	!	!	!	!	!	!
4E-\	6 3	.	4e-\	.	(8g/L	.	(8ee-\L	.	.	.	8e-\	-lis	8g\	-lis	.	.	.	.	.	.	.	.	.	.	.
.	.	.	.	.	8e-/J)	.	8cc\J)	.	.	.	8c\	pec-	8e-\	pec-	.	.	.	.	.	.	.	.	.	.	.
=14	=14	=14	=14	=14	=14	=14	=14	=14	=14	=14	=14	=14	=14	=14	=14	=14	=14	=14	=14	=14	=14	=14	=14	=14	=14
2F\	4 6	.	2f\	.	2d/	.	4b-|\	.	.	.	4B-\	-ca-	4d\	-ca-	.	.	.	.	.	.	.	.	.	.	.
.	.	.	.	.	.	.	4f|/	.	.	.	4F/	-ta	4d\	-ta	.	.	.	.	.	.	.	.	.	.	.
.	.	.	.	.	16qqf/	.	.	.	.	.	.	.	.	.	.	.	.	.	.	.	.	.	.	.	.
!	!	!	!	!	!	!	!LO:LB:g=original	!	!	!	!	!	!LO:LB:g=original	!	!	!	!	!	!	!	!	!	!	!	!
4FF/	5 7	.	4f\	.	8e-/L	.	(16dd\LL	.	.	.	16d\LL	mun-	4e-\	mun-	.	.	.	.	.	.	.	.	.	.	.
.	.	.	.	.	.	.	16cc\	.	.	.	16c\	.	.	.	.	.	.	.	.	.	.	.	.	.	.
.	.	.	.	.	16d/L	.	16b-\	.	.	.	16B-\	.	.	.	.	.	.	.	.	.	.	.	.	.	.
.	.	.	.	.	16e-/JJ	.	16cc\JJ)	.	.	.	16c\JJ	.	.	.	.	.	.	.	.	.	.	.	.	.	.
=15	=15	=15	=15	=15	=15	=15	=15	=15	=15	=15	=15	=15	=15	=15	=15	=15	=15	=15	=15	=15	=15	=15	=15	=15	=15
4BB-/	3	.	4f\	.	(4e-/	.	(4cc\	.	.	.	(4c\	-di	(4e-\	-di	.	.	.	2.r	.	2.r	.	.	.	.	.
4B-\	.	.	4f\	.	8d/)	.	8b-|\)	.	.	.	8B-\)	.	8d\)	.	.	.	.	.	.	.	.	.	.	.	.
.	.	.	.	.	8r	.	8r	.	.	.	8r	.	8r	.	.	.	.	.	.	.	.	.	.	.	.
4r	.	.	4r	.	4r	.	(8dd\L	.	.	.	(8d\L	mi-	4r	.	.	.	.	.	.	.	.	.	.	.	.
.	.	.	.	.	.	.	8cc\J)	.	.	.	8c\J	.	.	.	.	.	.	.	.	.	.	.	.	.	.
!	!	!	!	!	!	!	!	!	!	!	!	!	!	!	!	!	!	!	!	!	!	!	!LO:LB:g=original	!	!
=16	=16	=16	=16	=16	=16	=16	=16	=16	=16	=16	=16	=16	=16	=16	=16	=16	=16	=16	=16	=16	=16	=16	=16	=16	=16
*	*	*	*	*	*	*	*	*	*	*	*	*	*	*	*	*	*	*2\right	*	*	*	*	*	*	*
!	!	!	!	!	!	!	!	!	!	!	!	!	!	!	!	!	!	!	!LO:DY:rj	!	!	!	!	!	!
4G\	4_ 3	.	2.c\	.	(4b-\	.	2cc\	.	.	.	2c\)	.	(4b-\	mi-	.	.	.	2cc\	p	2cc\	p	4g/	p	4b-\	p
4F\	_ 3	.	.	.	4a\	.	.	.	.	.	.	.	4a\)	.	.	.	.	.	.	.	.	4f/	.	4a\	.
4En\	x 3	.	.	.	4g\)	.	4cc\	.	.	.	4c\	-se-	4g\	-se-	.	.	.	4cc\	.	4cc\	.	4eX/	.	4g\	.
=17	=17	=17	=17	=17	=17	=17	=17	=17	=17	=17	=17	=17	=17	=17	=17	=17	=17	=17	=17	=17	=17	=17	=17	=17	=17
4F\	3	.	4c\	.	4a/	.	(8cc\L	.	0.r	.	8c\L	-re-	4a\	-re-	0.r	.	.	4f/	.	4cc\	.	4f/	.	4a\	.
.	.	.	.	.	.	.	16dd\L	.	.	.	16d\L	.	.	.	.	.	.	.	.	.	.	.	.	.	.
.	.	.	.	.	.	.	16een\JJ)	.	.	.	16en\JJ	.	.	.	.	.	.	.	.	.	.	.	.	.	.
4FF/	.	.	4c\	.	4a/	.	4ff|\	.	.	.	4f\	-re	4a\	-re	.	.	.	4f/	.	4cc\	.	4f/	.	4a\	.
4AA/	6	.	4c\	.	8r	.	8r	.	.	.	8r	.	8r	.	.	.	.	4r	.	4r	.	4r	.	4r	.
.	.	.	.	.	8f/	.	8a/	.	.	.	8A/L	mi-	(8f\	mi-	.	.	.	.	.	.	.	.	.	.	.
!	!	!	!	!	!	!	!	!	!	!	!	!	!	!	!	!	!	!LO:LB:g=original	!	!LO:LB:g=original	!	!	!	!LO:LB:g=original	!
=18	=18	=18	=18	=18	=18	=18	=18	=18	=18	=18	=18	=18	=18	=18	=18	=18	=18	=18	=18	=18	=18	=18	=18	=18	=18
!	!	!	!	!	!	!	!	!	!	!	!	!	!	!	!	!	!	!LO:TX:a:t=14	!	!LO:TX:a:t=13	!	!LO:TX:a:t=5	!	!LO:TX:a:t=5	!
2C/	n	.	2.c\	.	8en/L	.	(8g\L	.	.	.	8G/J	.	8en\)	.	.	.	.	0.r	.	0.r	.	0.r	.	0.r	.
.	.	.	.	.	8b-/	.	8dd\)	.	.	.	8d\	-se-	8b-\	-se-	.	.	.	.	.	.	.	.	.	.	.
.	.	.	.	.	(8b-/	.	(8dd\	.	.	.	8d\L	-re-	8b-\L	-re-	.	.	.	.	.	.	.	.	.	.	.
.	.	.	.	.	8a/)	.	8cc\J)	.	.	.	8c\J	.	8a\J	.	.	.	.	.	.	.	.	.	.	.	.
4En\	6 4	.	.	.	(8a/	.	(8cc\L	.	.	.	8c\L	-re	8a\L	-re	.	.	.	.	.	.	.	.	.	.	.
.	5_ 3_	.	.	.	8g/J)	.	8b-\J)	.	.	.	8B-\J	.	8g\J	.	.	.	.	.	.	.	.	.	.	.	.
=19	=19	=19	=19	=19	=19	=19	=19	=19	=19	=19	=19	=19	=19	=19	=19	=19	=19	=19	=19	=19	=19	=19	=19	=19	=19
4F\	x x	.	4c\	.	4g/	.	8.b-T\L	.	.	.	8.B-T\L	no-	4g\	no-	.	.	.	.	.	.	.	.	.	.	.
.	.	.	.	.	.	.	(32cc\LL	.	.	.	32c\LL	.	.	.	.	.	.	.	.	.	.	.	.	.	.
.	.	.	.	.	.	.	32b-\JJJ)	.	.	.	32B-\JJJ	.	.	.	.	.	.	.	.	.	.	.	.	.	.
8r	3 1	.	4c\	.	4f/	.	4a/	.	.	.	4A\	-bis	4f\	-bis	.	.	.	.	.	.	.	.	.	.	.
8F|/L	.	.	.	.	.	.	.	.	.	.	.	.	.	.	.	.	.	.	.	.	.	.	.	.	.
8C|/	.	.	4r	.	4r	.	4r	.	.	.	4r	.	4r	.	.	.	.	.	.	.	.	.	.	.	.
8AA|/J	.	.	.	.	.	.	.	.	.	.	.	.	.	.	.	.	.	.	.	.	.	.	.	.	.
!LO:LB:g=original	!	!	!	!	!	!	!	!	!	!	!LO:LB:g=original	!	!	!	!	!	!	!	!	!	!	!	!	!	!
=20	=20	=20	=20	=20	=20	=20	=20	=20	=20	=20	=20	=20	=20	=20	=20	=20	=20	=20	=20	=20	=20	=20	=20	=20	=20
4FF/	8 3	.	4a\	.	(4a\	.	(4ff\	.	.	.	(4f\	mi-	(4a\	mi-	.	.	.	.	.	.	.	.	.	.	.
4GG/	6| 3	.	4g\	.	4b-\	.	4een\	.	.	.	4en\)	.	4b-\)	.	.	.	.	.	.	.	.	.	.	.	.
4AA/	-5 3	.	4f\	.	4cc\)	.	4ee-X\)	.	.	.	4e-X\	-se-	4cc\	-se-	.	.	.	.	.	.	.	.	.	.	.
!	!	!	!	!	!LO:PB:g=original	!	!LO:PB:g=original	!	!	!	!	!	!	!	!	!	!	!	!	!	!	!	!	!	!
=21	=21	=21	=21	=21	=21	=21	=21	=21	=21	=21	=21	=21	=21	=21	=21	=21	=21	=21	=21	=21	=21	=21	=21	=21	=21
4BB-/	3	.	4f\	.	(8cc\L	.	(8ee-\L	.	1.r	.	(8e-\L	-re-	8cc\L	-re-	1.r	.	.	.	.	.	.	.	.	.	.
.	.	.	.	.	8b-\J)	.	8dd\J)	.	.	.	8d\J)	.	8b-\J	.	.	.	.	.	.	.	.	.	.	.	.
4BB-/	.	.	4f\	.	4b-\	.	4dd\	.	.	.	4d\	-re	4b-\	-re	.	.	.	.	.	.	.	.	.	.	.
4r	.	.	(16f\LL	.	(16dd\LL	.	(16ff\LL	.	.	.	4r	.	4r	.	.	.	.	.	.	.	.	.	.	.	.
.	.	.	16en\	.	16cc\	.	16een\	.	.	.	.	.	.	.	.	.	.	.	.	.	.	.	.	.	.
.	.	.	16f\)	.	16dd\)	.	16ff\)	.	.	.	.	.	.	.	.	.	.	.	.	.	.	.	.	.	.
.	.	.	16d|\JJ	.	16b-\JJ	.	16dd|\JJ	.	.	.	.	.	.	.	.	.	.	.	.	.	.	.	.	.	.
=22	=22	=22	=22	=22	=22	=22	=22	=22	=22	=22	=22	=22	=22	=22	=22	=22	=22	=22	=22	=22	=22	=22	=22	=22	=22
8AA/L	3	.	8c\L	.	8a/L	.	(16cc\LL	.	.	.	16c\LL	no-	8a\L	no-	.	.	.	0.r	.	0.r	.	2.r	.	2.r	.
.	.	.	.	.	.	.	16ff\)	.	.	.	16f\	.	.	.	.	.	.	.	.	.	.	.	.	.	.
8BB-/J	.	.	8e-\J	.	16b-/L	.	16dd|\	.	.	.	16d\	.	16b-\L	.	.	.	.	.	.	.	.	.	.	.	.
.	.	.	.	.	16g/JJ	.	16b-|\JJ	.	.	.	16B-\JJ	.	16g\JJ	.	.	.	.	.	.	.	.	.	.	.	.
4C/	4	.	4r	.	4f/	.	4a/	.	.	.	4A\	.	4f\	.	.	.	.	.	.	.	.	.	.	.	.
4CC/	n	.	4r	.	4en/	.	4g/	.	.	.	4G\	.	4en\	.	.	.	.	.	.	.	.	.	.	.	.
!	!	!	!LO:LB:g=original	!	!	!	!	!	!	!	!	!	!LO:LB:g=original	!	!	!	!	!	!	!	!	!LO:PB:g=original	!	!	!
=23	=23	=23	=23	=23	=23	=23	=23	=23	=23	=23	=23	=23	=23	=23	=23	=23	=23	=23	=23	=23	=23	=23	=23	=23	=23
!	!	!	!	!	!	!	!LO:TX:t=P:problem:mixed beam	!	!	!	!	!	!	!	!	!	!	!	!	!	!	!	!	!	!
4FF/	3	.	4c\	.	8f/L	.	(>8f/L	.	2.r	.	4F/	-bis	4f\	-bis	2.r	.	.	.	.	.	.	8r	.	8r	.
!	!	!	!	!	!	!	!	!	!	!	!	!	!	!	!	!	!	!	!	!	!	!	!	!	!LO:DY:t=f
.	.	.	.	.	8a|/	.	8ff\)	.	.	.	.	.	.	.	.	.	.	.	.	.	.	8a|/L	.	8ff|\L	f
4r	.	.	4r	.	8g|/	.	8een|\	.	.	.	4r	.	4r	.	.	.	.	.	.	.	.	8g|/	.	8eeX|\	.
.	.	.	.	.	8f|/	.	8dd|\	.	.	.	.	.	.	.	.	.	.	.	.	.	.	8f|/	.	8dd|\	.
4r	.	.	4r	.	8en|/	.	8cc|\	.	.	.	4r	.	4r	.	.	.	.	.	.	.	.	8eX|/	.	8cc|\	.
.	.	.	.	.	8d|/J	.	8bn|\J	.	.	.	.	.	.	.	.	.	.	.	.	.	.	8d|/J	.	8bX|\J	.
=24	=24	=24	=24	=24	=24	=24	=24	=24	=24	=24	=24	=24	=24	=24	=24	=24	=24	=24	=24	=24	=24	=24	=24	=24	=24
*	*	*	*	*	*	*	*	*	*2\right	*	*	*	*	*	*	*	*	*	*	*	*	*	*	*	*
!	!	!	!	!	!	!	!	!	!	!	!	!	!	!	!LO:TX:b:i:t=dolce	!	!	!	!	!	!	!	!	!	!
!	!	!	!	!	!	!	!	!	!LO:TX:t=dol&colon;	!	!LO:TX:a:t=20	!	!LO:TX:a:t=20	!	!	!	!	!	!	!	!	!LO:TX:a:t=8	!	!LO:TX:a:t=8	!
4C\	n	.	4C/	.	2g/	.	2een\	.	2G\	A-	0.r	.	0.r	.	4.een\	A-	.	.	.	.	.	0.r	.	0.r	.
4En\	.	.	4En/	.	.	.	.	.	.	.	.	.	.	.	.	.	.	.	.	.	.	.	.	.	.
.	.	.	.	.	.	.	.	.	.	.	.	.	.	.	8ff\	.	.	.	.	.	.	.	.	.	.
4G\	5_ 7_	.	4G/	.	(8f/L	.	(8dd\L	.	(8F\L	-gnus	.	.	.	.	8dd\L	-gnus	.	.	.	.	.	.	.	.	.
.	.	.	.	.	8d/J)	.	8bn\J)	.	8D\J)	.	.	.	.	.	8bn\J	.	.	.	.	.	.	.	.	.	.
=25	=25	=25	=25	=25	=25	=25	=25	=25	=25	=25	=25	=25	=25	=25	=25	=25	=25	=25	=25	=25	=25	=25	=25	=25	=25
4c\	x x	.	4c\	.	8f/L	.	(8dd\L	.	(8F\L	De-	.	.	.	.	8dd\L	De-	.	.	.	.	.	.	.	.	.
.	.	.	.	.	8en/J	.	8cc\J)	.	8En\J)	.	.	.	.	.	8cc\J	.	.	.	.	.	.	.	.	.	.
4C/	3	.	4C/	.	4e/	.	4cc\	.	4E\	-i	.	.	.	.	4cc\	-i	.	.	.	.	.	.	.	.	.
4r	.	.	4r	.	(8bn\L	.	8dd|\L	.	4r	.	.	.	.	.	4r	.	.	.	.	.	.	.	.	.	.
.	.	.	.	.	8cc\J)	.	8ee-|\J	.	.	.	.	.	.	.	.	.	.	.	.	.	.	.	.	.	.
=26	=26	=26	=26	=26	=26	=26	=26	=26	=26	=26	=26	=26	=26	=26	=26	=26	=26	=26	=26	=26	=26	=26	=26	=26	=26
4GG/	7 5	.	4G/	.	4.dd\	.	4.ff\	.	2d\	A-	.	.	.	.	4.ff\	A-	.	0.r	.	0.r	.	.	.	.	.
4BBn/	.	.	4Bn/	.	.	.	.	.	.	.	.	.	.	.	.	.	.	.	.	.	.	.	.	.	.
.	.	.	.	.	8ee-|\L	.	8gg|\L	.	.	.	.	.	.	.	8gg\	.	.	.	.	.	.	.	.	.	.
4C/	3	.	4c\	.	8dd|\	.	8ff|\	.	(8d\L	-gnus	.	.	.	.	(8ff\L	-gnus	.	.	.	.	.	.	.	.	.
.	.	.	.	.	8cc|\J	.	8een|\J	.	8c\J)	.	.	.	.	.	8een\J)	.	.	.	.	.	.	.	.	.	.
!	!	!	!	!	!	!	!LO:LB:g=original	!	!	!	!	!	!	!	!	!	!	!	!	!	!	!	!	!	!
=27	=27	=27	=27	=27	=27	=27	=27	=27	=27	=27	=27	=27	=27	=27	=27	=27	=27	=27	=27	=27	=27	=27	=27	=27	=27
4G\	4	.	4g\	.	8cc\L	.	(8ee-\L	.	8c\L	De-	.	.	.	.	8ee-\L	De-	.	.	.	.	.	.	.	.	.
.	.	.	.	.	8b-\J	.	8dd\J)	.	8Bn\J	.	.	.	.	.	8dd\J	.	.	.	.	.	.	.	.	.	.
4GG/	3	.	4g\	.	4b-\	.	4dd\	.	4B\	-i	.	.	.	.	4dd\	-i	.	.	.	.	.	.	.	.	.
4r	.	.	4r	.	8cc\L	.	(8ee-\L	.	4r	.	.	.	.	.	4r	.	.	.	.	.	.	.	.	.	.
.	.	.	.	.	8dd\J	.	8ff\J)	.	.	.	.	.	.	.	.	.	.	.	.	.	.	.	.	.	.
=28	=28	=28	=28	=28	=28	=28	=28	=28	=28	=28	=28	=28	=28	=28	=28	=28	=28	=28	=28	=28	=28	=28	=28	=28	=28
*	*	*	*	*	*	*	*	*	*	*	*	*	*	*	*2\right	*	*	*	*	*	*	*	*	*	*
4r	3_ 6_	.	(2cc\	.	(2cc\	.	2gg\	.	(2en\	qui	0.r	.	0.r	.	(2gg\	qui	.	.	.	.	.	0.r	.	0.r	.
4En\	x x	.	.	.	.	.	.	.	.	.	.	.	.	.	.	.	.	.	.	.	.	.	.	.	.
4D\	3 6|	.	4bn\)	.	4bn\)	.	4ff\	.	4d\)	.	.	.	.	.	4ff\)	.	.	.	.	.	.	.	.	.	.
!	!	!	!	!	!	!	!	!	!LO:LB:g=original	!	!	!	!	!	!	!	!	!	!	!	!	!	!	!	!
=29	=29	=29	=29	=29	=29	=29	=29	=29	=29	=29	=29	=29	=29	=29	=29	=29	=29	=29	=29	=29	=29	=29	=29	=29	=29
4r	3_ 1_	.	4g\	.	(8dd\L	.	(8ff\L	.	(8d\L	tol-	.	.	.	.	8ff\L	tol-	.	.	.	.	.	.	.	.	.
.	.	.	.	.	8cc\J)	.	8ee-\)	.	8c\J)	.	.	.	.	.	8een\J	.	.	.	.	.	.	.	.	.	.
4C/	x x	.	4g\	.	4cc\	.	8ee-|\	.	4c\	-lis	.	.	.	.	4ee\	-lis	.	.	.	.	.	.	.	.	.
.	.	.	.	.	.	.	8gg|\J	.	.	.	.	.	.	.	.	.	.	.	.	.	.	.	.	.	.
4F\	6 3	.	4r	.	8a/L	.	8ff|\L	.	8r	.	.	.	.	.	8r	.	.	.	.	.	.	.	.	.	.
!	!	!	!	!	!	!	!	!	!	!	!	!	!	!	!LO:LB:g=original	!	!	!	!	!	!	!	!	!	!
.	.	.	.	.	8f/J	.	8dd|\J	.	8F\	pec-	.	.	.	.	8dd\	pec-	.	.	.	.	.	.	.	.	.
=30	=30	=30	=30	=30	=30	=30	=30	=30	=30	=30	=30	=30	=30	=30	=30	=30	=30	=30	=30	=30	=30	=30	=30	=30	=30
4r	4_ 6_	.	2g\	.	2en/	.	(4cc\	.	4En\	-ca-	.	.	.	.	4cc\	-ca-	.	1.r	.	2.r	.	.	.	.	.
4GG/	x x	.	.	.	.	.	4g\)	.	4E\	-ta	.	.	.	.	4g\	-ta	.	.	.	.	.	.	.	.	.
4G\	5 7	.	4g\	.	4f/	.	(16een\LL	.	(16G\LL	mun-	.	.	.	.	(16een\LL	mun-	.	.	.	.	.	.	.	.	.
.	.	.	.	.	.	.	16dd\	.	16F\	.	.	.	.	.	16dd\	.	.	.	.	.	.	.	.	.	.
.	.	.	.	.	.	.	16cc\	.	16E\	.	.	.	.	.	16cc\	.	.	.	.	.	.	.	.	.	.
.	.	.	.	.	.	.	16dd\JJ)	.	16F\JJ)	.	.	.	.	.	16dd\JJ)	.	.	.	.	.	.	.	.	.	.
!LO:LB:g=original	!	!	!	!	!LO:LB:g=original	!	!	!	!	!	!	!	!	!	!	!	!	!	!	!	!	!	!	!	!
=31	=31	=31	=31	=31	=31	=31	=31	=31	=31	=31	=31	=31	=31	=31	=31	=31	=31	=31	=31	=31	=31	=31	=31	=31	=31
4c\	8_ 3_	.	2g\	.	(4f/	.	(4dd\	.	(4F\	-di	.	.	.	.	(4dd\	-di	.	.	.	4r	.	.	.	.	.
4C/	x x	.	.	.	8e-/)	.	8cc|\)	.	8En\)	.	.	.	.	.	8cc\)	.	.	.	.	4cc\	.	.	.	.	.
.	.	.	.	.	8cc\L	.	8r	.	8r	.	.	.	.	.	8r	.	.	.	.	.	.	.	.	.	.
4r	.	.	4r	.	8cc\	.	4r	.	4r	.	.	.	.	.	4r	.	.	.	.	4cc\	.	.	.	.	.
.	.	.	.	.	8cc\J	.	.	.	.	.	.	.	.	.	.	.	.	.	.	.	.	.	.	.	.
=32	=32	=32	=32	=32	=32	=32	=32	=32	=32	=32	=32	=32	=32	=32	=32	=32	=32	=32	=32	=32	=32	=32	=32	=32	=32
*	*	*	*	*	*	*	*	*	*	*	*	*	*	*	*	*	*	*	*	*	*	*2\right	*	*2\right	*
!	!	!	!	!	!	!	!	!	!	!	!	!	!	!	!	!	!	!	!	!	!	!	!	!	!LO:DY:rj
4c\	3 5	.	2g\	.	8r	.	2een\	.	2G\	mi-	0.r	.	0.r	.	2een\	mi-	.	2cc\	p	2cc\	p	2b-\	p	(2eeX\	p
.	.	.	.	.	8b-\L	.	.	.	.	.	.	.	.	.	.	.	.	.	.	.	.	.	.	.	.
4B-X\	.	.	.	.	8cc\	.	.	.	.	.	.	.	.	.	.	.	.	.	.	.	.	.	.	.	.
.	.	.	.	.	8b-\	.	.	.	.	.	.	.	.	.	.	.	.	.	.	.	.	.	.	.	.
4A\	6	.	4f\	.	8cc\	.	(8ff\L	.	4A\	-se-	.	.	.	.	8ff\L	-se-	.	4f/	.	4cc\	.	4a\	.	4ff\)	.
.	.	.	.	.	8cc\J	.	8dd\J)	.	.	.	.	.	.	.	8dd\J	.	.	.	.	.	.	.	.	.	.
=33	=33	=33	=33	=33	=33	=33	=33	=33	=33	=33	=33	=33	=33	=33	=33	=33	=33	=33	=33	=33	=33	=33	=33	=33	=33
.	.	.	.	.	.	.	.	.	.	.	.	.	.	.	.	.	.	.	.	.	.	.	.	8qqcc/	.
4G\	-	.	4e-\	.	(8g\L	.	(4cc\	.	(4G\	-re-	.	.	.	.	(4cc\	-re-	.	2cc\	.	2cc\	.	2g/	.	(2b-\	.
.	.	.	.	.	8cc\)	.	.	.	.	.	.	.	.	.	.	.	.	.	.	.	.	.	.	.	.
4C/	.	.	4g\	.	(8en\	.	4b-X\)	.	4En\)	.	.	.	.	.	4b-X\)	.	.	.	.	.	.	.	.	.	.
.	.	.	.	.	8cc\)	.	.	.	.	.	.	.	.	.	.	.	.	.	.	.	.	.	.	.	.
4F\	3	.	4f\	.	(8f\	.	4a|\	.	4F\	-re	.	.	.	.	4a\	-re	.	4f/	.	4cc\	.	4f/	.	4a\)	.
.	.	.	.	.	8cc\J)	.	.	.	.	.	.	.	.	.	.	.	.	.	.	.	.	.	.	.	.
!	!	!	!	!	!	!	!LO:LB:g=original	!	!	!	!	!	!	!	!	!	!	!	!	!	!	!	!	!	!
=34	=34	=34	=34	=34	=34	=34	=34	=34	=34	=34	=34	=34	=34	=34	=34	=34	=34	=34	=34	=34	=34	=34	=34	=34	=34
4c\	5 3	.	2g\	.	(8b-\L	.	2een\	.	2G\	mi-	.	.	.	.	(2een\	mi-	.	2cc\	.	2cc\	.	2b-\	.	(2eeX\	.
.	.	.	.	.	8cc\)	.	.	.	.	.	.	.	.	.	.	.	.	.	.	.	.	.	.	.	.
4B-\	.	.	.	.	(8b-\	.	.	.	.	.	.	.	.	.	.	.	.	.	.	.	.	.	.	.	.
.	.	.	.	.	8cc\)	.	.	.	.	.	.	.	.	.	.	.	.	.	.	.	.	.	.	.	.
4A\	6	.	4f\	.	(8a\	.	(16gg\LL	.	4A\	-se-	.	.	.	.	16gg\LL	.	.	4f/	.	4cc\	.	4a\	.	4ff\)	.
.	.	.	.	.	.	.	16ff\	.	.	.	.	.	.	.	16ff\JJ)	.	.	.	.	.	.	.	.	.	.
.	.	.	.	.	8cc\J)	.	16ee\	.	.	.	.	.	.	.	16ee\LL	-se-	.	.	.	.	.	.	.	.	.
.	.	.	.	.	.	.	16dd\JJ)	.	.	.	.	.	.	.	16dd\JJ	.	.	.	.	.	.	.	.	.	.
!	!	!	!LO:LB:g=original	!	!	!	!	!	!	!	!	!	!	!	!	!	!	!	!	!	!	!	!	!	!
=35	=35	=35	=35	=35	=35	=35	=35	=35	=35	=35	=35	=35	=35	=35	=35	=35	=35	=35	=35	=35	=35	=35	=35	=35	=35
.	.	.	.	.	.	.	.	.	.	.	.	.	.	.	.	.	.	.	.	.	.	.	.	8qqcc/	.
4G\	-	.	4en\	.	(8g\L	.	(4cc\	.	(4G\	-re-	.	.	.	.	(4cc\	-re-	.	2cc\	.	2cc\	.	2g/	.	2b-\	.
.	.	.	.	.	8cc\)	.	.	.	.	.	.	.	.	.	.	.	.	.	.	.	.	.	.	.	.
4C/	.	.	4g\	.	(8e-\	.	4b-\	.	4E-\)	.	.	.	.	.	4b-\)	.	.	.	.	.	.	.	.	.	.
.	.	.	.	.	8cc\)	.	.	.	.	.	.	.	.	.	.	.	.	.	.	.	.	.	.	.	.
4F\	3	.	4f\	.	(8f\	.	4a\)	.	4F\	-re	.	.	.	.	4a\	-re	.	4f/	.	4cc\	.	4f/	.	4a\	.
.	.	.	.	.	8cc\J)	.	.	.	.	.	.	.	.	.	.	.	.	.	.	.	.	.	.	.	.
=36	=36	=36	=36	=36	=36	=36	=36	=36	=36	=36	=36	=36	=36	=36	=36	=36	=36	=36	=36	=36	=36	=36	=36	=36	=36
!	!	!	!	!	!	!	!	!	!	!	!	!	!	!	!	!	!LO:DY:a:t=p::color=red	!LO:TX:a:t=8	!	!LO:TX:a:t=8	!	!LO:TX:a:t=8	!	!LO:TX:a:t=8	!
4r	3_ 5_	.	4r	.	(2.f/	.	(2.dd\	.	2.B-\	mi-	0.r	.	0.r	.	2.dd\	mi-	p	0.r	.	0.r	.	0.r	.	0.r	.
4BB-/	x x	.	4B-'/	.	.	.	.	.	.	.	.	.	.	.	.	.	.	.	.	.	.	.	.	.	.
4B-\	.	.	4B-'/	.	.	.	.	.	.	.	.	.	.	.	.	.	.	.	.	.	.	.	.	.	.
!	!	!	!	!	!	!	!	!	!LO:LB:g=original	!	!	!	!	!	!	!	!	!	!	!	!	!	!	!	!
=37	=37	=37	=37	=37	=37	=37	=37	=37	=37	=37	=37	=37	=37	=37	=37	=37	=37	=37	=37	=37	=37	=37	=37	=37	=37
!	!	!	!	!	!	!	!	!	!	!	!	!	!	!	!	!	!LO:HP:a:color=red	!	!	!	!	!	!	!	!
4r	6|_ 3_	.	4r	.	2.b-X\	.	2.een\	.	2.G\	.	.	.	.	.	2.een\	.	<[	.	.	.	.	.	.	.	.
4GG/	x x	.	4g'\	.	.	.	.	.	.	.	.	.	.	.	.	.	.	.	.	.	.	.	.	.	.
4G\	.	.	4g'\	.	.	.	.	.	.	.	.	.	.	.	.	.	.	.	.	.	.	.	.	.	.
=38	=38	=38	=38	=38	=38	=38	=38	=38	=38	=38	=38	=38	=38	=38	=38	=38	=38	=38	=38	=38	=38	=38	=38	=38	=38
4r	6|_ 3_	.	4r	.	2.cc\)	.	2.ff\	.	2.A\	-se-	.	.	.	.	2.ff\	-se-	.	.	.	.	.	.	.	.	.
4AA/	x x	.	4a'\	.	.	.	.	.	.	.	.	.	.	.	.	.	.	.	.	.	.	.	.	.	.
4A\	.	.	4a'\	.	.	.	.	.	.	.	.	.	.	.	.	.	.	.	.	.	.	.	.	.	.
=39	=39	=39	=39	=39	=39	=39	=39	=39	=39	=39	=39	=39	=39	=39	=39	=39	=39	=39	=39	=39	=39	=39	=39	=39	=39
!	!	!	!	!	!	!	!	!	!	!	!	!	!	!	!	!	!LO:DY:a:t=fort:color=red	!	!	!	!	!	!	!	!
4C\	5 7	.	2c\	.	4b-\	.	4gg\)	.	(4En\	-re-	.	.	.	.	(4gg\	-re-	f	.	.	.	.	.	.	.	.
4En\	5 3	.	.	.	4g/	.	4b-X\	.	4G\)	.	.	.	.	.	4b-X\)	.	.	.	.	.	.	.	.	.	.
4F\	3	.	4c\	.	4f/	.	4a/	.	4F\	-re	.	.	.	.	4a\	-re	.	.	.	.	.	.	.	.	.
!	!	!	!	!	!	!	!	!	!	!	!	!	!	!	!LO:LB:g=original	!	!	!	!	!	!	!	!	!	!
=40	=40	=40	=40	=40	=40	=40	=40	=40	=40	=40	=40	=40	=40	=40	=40	=40	=40	=40	=40	=40	=40	=40	=40	=40	=40
4BB-/	6	.	4d\	.	(8c/L	.	(8a/L	.	8c\L	no-	0.r	.	0.r	.	(8a\L	no-	.	0.r	.	0.r	.	0.r	.	0.r	.
.	.	.	.	.	8B-/J)	.	8g/J)	.	(8B-\J	.	.	.	.	.	8g\J	.	.	.	.	.	.	.	.	.	.
4C/	4	.	4c\	.	4A/	.	4f/	.	4A\)	.	.	.	.	.	4f\)	.	.	.	.	.	.	.	.	.	.
4CC/	n	.	4c\	.	4G/	.	4en/	.	4G\	-bis	.	.	.	.	4en/	-bis	.	.	.	.	.	.	.	.	.
=41	=41	=41	=41	=41	=41	=41	=41	=41	=41	=41	=41	=41	=41	=41	=41	=41	=41	=41	=41	=41	=41	=41	=41	=41	=41
4FF/	5 3	.	4f\	.	(4a\	.	(4cc\	.	(4A\	mi-	.	.	.	.	(4cc\	mi-	.	.	.	.	.	.	.	.	.
4GG/	6 3	.	4g\	.	4b-\	.	4een\)	.	4G\)	.	.	.	.	.	4een\)	.	.	.	.	.	.	.	.	.	.
4AA/	6 3	.	4a\	.	4cc\)	.	4ff\	.	4A\	-se-	.	.	.	.	4ff\	-se-	.	.	.	.	.	.	.	.	.
=42	=42	=42	=42	=42	=42	=42	=42	=42	=42	=42	=42	=42	=42	=42	=42	=42	=42	=42	=42	=42	=42	=42	=42	=42	=42
.	.	.	.	.	.	.	.	.	16qqc/	.	.	.	.	.	.	.	.	.	.	.	.	.	.	.	.
4BB-/	.	.	4d\	.	(16cc\LL	.	(16ee-\LL	.	8B-\	-re-	.	.	.	.	16ee-\LL	-re-	.	.	.	.	.	.	.	.	.
.	.	.	.	.	16b-\	.	16dd\	.	.	.	.	.	.	.	16dd\JJ	.	.	.	.	.	.	.	.	.	.
.	.	.	.	.	16a\	.	16cc\	.	16A\LL	-re	.	.	.	.	16cc\LL	-re	.	.	.	.	.	.	.	.	.
.	.	.	.	.	16g\JJ)	.	16b-\JJ)	.	16G\JJ	.	.	.	.	.	16b-\JJ	.	.	.	.	.	.	.	.	.	.
4C/	4	.	4c\	.	4f/	.	4a/	.	(4F\	no-	.	.	.	.	(4a\	no-	.	.	.	.	.	.	.	.	.
4CC/	n	.	4c\	.	4B-/	.	4g/	.	4En\)	.	.	.	.	.	4g\)	.	.	.	.	.	.	.	.	.	.
!LO:LB:g=original	!	!	!	!	!LO:LB:g=original	!	!	!	!	!	!	!	!	!	!	!	!	!	!	!	!	!	!	!	!
=43	=43	=43	=43	=43	=43	=43	=43	=43	=43	=43	=43	=43	=43	=43	=43	=43	=43	=43	=43	=43	=43	=43	=43	=43	=43
4FF/	3	.	4c\	.	4A/	.	4f/	.	4F\	-bis	.	.	.	.	4f/	-bis	.	.	.	.	.	.	.	.	.
!LO:TX:b:i:t=Tutti	!	!	!	!	!	!	!	!	!	!	!	!	!	!	!	!	!	!	!	!	!	!	!	!	!
8F|\L	.	.	8f'\L	.	4r	.	4r	.	4r	.	.	.	.	.	4r	.	.	.	.	.	.	.	.	.	.
8E-X|\	.	.	8e-X'\	.	.	.	.	.	.	.	.	.	.	.	.	.	.	.	.	.	.	.	.	.	.
8D|\	.	.	8d'\	.	4r	.	4r	.	4r	.	.	.	.	.	4r	.	.	.	.	.	.	.	.	.	.
8C|\J	.	.	8c'\J	.	.	.	.	.	.	.	.	.	.	.	.	.	.	.	.	.	.	.	.	.	.
!	!	!	!	!	!	!	!LO:LB:g=original	!	!	!	!	!	!	!	!	!	!	!	!	!	!	!	!	!	!
=44	=44	=44	=44	=44	=44	=44	=44	=44	=44	=44	=44	=44	=44	=44	=44	=44	=44	=44	=44	=44	=44	=44	=44	=44	=44
!	!	!	!	!	!	!LO:DY:rj	!LO:TX:t=P:problem:f=forto	!	!	!	!	!	!	!	!	!	!LO:DY:a:color=red	!	!LO:DY:t=fort:rj	!	!LO:DY:t=fort	!	!LO:DY:t=fort	!	!LO:DY:t=fort
2BB-/	5 3	.	2f\	f	2d/	f	(4f/	f	2B-\	A-	2f\	A-	2d\	A-	(4f/	A-	f	4B-/	f	4b-\	f	(4B-/	f	(4f/	f
.	.	.	.	.	.	.	4dd\)	.	.	.	.	.	.	.	4dd\)	.	.	4r	.	4r	.	4b-\)	.	4dd\)	.
4C/	6 3	.	4f\	.	4e-/	.	4a|\	.	4c\	-gnus	4f\	-gnus	4e-X\	-gnus	4a\	-gnus	.	4f/	.	4cc|\	.	4e-|/	.	4a\	.
=45	=45	=45	=45	=45	=45	=45	=45	=45	=45	=45	=45	=45	=45	=45	=45	=45	=45	=45	=45	=45	=45	=45	=45	=45	=45
4D/	6 3	.	4d\	.	4f/	.	4b-|\	.	4d\	De-	4d\	De-	4f\	De-	4b-\	De-	.	4b-\	.	4dd|\	.	4f/	.	4b-'\	.
4AA/	3_ 6_	.	4a\	.	4f/	.	4cc|\	.	4A\	-i	4c\	-i	4f\	-i	4cc\	-i	.	4f/	.	4cc|\	.	4f/	.	4cc'\	.
!	!	!	!	!	!	!	!	!	!LO:LB:g=original	!	!	!	!	!	!	!	!	!	!	!	!	!	!	!	!
8r	.	.	8r	.	8r	.	8r	.	8r	.	8r	.	8r	.	8r	.	.	4r	.	4r	.	8r	.	8r	.
8AA/	x x	.	8f\	.	8f/	.	8cc|\	.	8A\	qui	8f\	qui	8f\	qui	8cc\	qui	.	.	.	.	.	8f/	.	8cc\	.
!	!	!	!LO:LB:g=original	!	!	!	!	!	!	!	!	!	!	!	!	!	!	!	!	!	!	!	!	!	!
=46	=46	=46	=46	=46	=46	=46	=46	=46	=46	=46	=46	=46	=46	=46	=46	=46	=46	=46	=46	=46	=46	=46	=46	=46	=46
4BB-/	3	.	4f\	.	(4b-\	.	(4dd\	.	4B-\	tol-	4f\	tol-	4b-\	tol-	4dd\	tol-	.	4B-/	.	4b-\	.	(4b-\	.	(4dd\	.
4E-\	5	.	4g\	.	4g\)	.	4b-\)	.	4E-\	-lis	4g\	-lis	4g\	-lis	4b-\	-lis	.	4r	.	4r	.	4g/)	.	4b-\)	.
4C/	3	.	4g\	.	4cc|\	.	4ee-X|\	.	4C\	pec-	4g\	pec-	4cc\	pec-	4ee-X\	pec-	.	4r	.	4r	.	4cc|\	.	4ee-'\	.
=47	=47	=47	=47	=47	=47	=47	=47	=47	=47	=47	=47	=47	=47	=47	=47	=47	=47	=47	=47	=47	=47	=47	=47	=47	=47
4F\	4	.	4f\	.	4b-|\	.	4dd|\	.	4F|\	-ca-	4f\	-ca-	4b-\	-ca-	4dd|\	-ca-	.	4b-\	.	4dd|\	.	4b-\	.	4dd'\	.
4FF/	3	.	4f\	.	4a|\	.	4cc|\	.	4F|\	-ta	4f\	-ta	4a\	-ta	4cc|\	-ta	.	4f/	.	4cc|\	.	4a\	.	4cc'\	.
4r	.	.	4r	.	4r	.	4r	.	4r	.	4r	.	4r	.	4r	.	.	4r	.	4r	.	4r	.	4r	.
!	!	!	!	!	!	!	!	!	!	!	!LO:LB:g=original	!	!	!	!	!	!	!	!	!	!	!	!	!	!
=48	=48	=48	=48	=48	=48	=48	=48	=48	=48	=48	=48	=48	=48	=48	=48	=48	=48	=48	=48	=48	=48	=48	=48	=48	=48
4FF|/	8 3	.	4c|\	.	4a|/	.	4ff|\	.	4F|\	A-	4c|\	A-	4a|\	A-	4ff|\	A-	.	4f/	.	4cc|\	.	4a\	.	4ff'\	.
4GG|/	6| 3	.	4c|\	.	4b-|/	.	4een|\	.	4G|\	-gnus	4c|\	-gnus	4b-|\	-gnus	4een|\	-gnus	.	4cc\	.	4cc|\	.	4b-\	.	4eeX'\	.
4r	.	.	4r	.	4r	.	4r	.	4r	.	4r	.	4r	.	4r	.	.	4r	.	4r	.	4r	.	4r	.
!	!	!	!	!	!	!	!	!	!	!	!	!	!	!	!	!	!	!	!	!	!	!LO:LB:g=original	!	!	!
=49	=49	=49	=49	=49	=49	=49	=49	=49	=49	=49	=49	=49	=49	=49	=49	=49	=49	=49	=49	=49	=49	=49	=49	=49	=49
4AA|/	5 3_	.	4f|\	.	4cc|\	.	4ee-X|\	.	4A|\	De-	4f|\	De-	4cc|\	De-	4ee-X|\	De-	.	4f/	.	4cc|\	.	4cc|\	.	4ee-X'\	.
4BB-|/	3 x	.	4f|\	.	4b-|\	.	4dd|\	.	4B-|\	-i	4f|\	-i	4b-|\	-i	4dd|\	-i	.	4b-\	.	4dd|\	.	4b-|\	.	4dd'\	.
4r	.	.	4r	.	4r	.	4r	.	4r	.	4r	.	4r	.	4r	.	.	4r	.	4r	.	4r	.	4r	.
!	!	!	!	!	!	!	!	!	!	!	!	!	!	!	!LO:LB:g=original	!	!	!	!	!	!	!	!	!	!
=50	=50	=50	=50	=50	=50	=50	=50	=50	=50	=50	=50	=50	=50	=50	=50	=50	=50	=50	=50	=50	=50	=50	=50	=50	=50
4BB-/	3	.	4f'\	.	(8b-'\L	.	(8dd'\L	.	(4BB-/	A-	2f\	A-	2b-\	A-	2dd\	A-	.	4B-/	.	4f/	.	2.f/	.	2.dd\	.
.	.	.	.	.	8b-'\J	.	8dd'\	.	.	.	.	.	.	.	.	.	.	.	.	.	.	.	.	.	.
4B-\	.	.	4f'\	.	8b-'\L	.	8dd'\	.	4B-\)	.	.	.	.	.	.	.	.	4r	.	4r	.	.	.	.	.
.	.	.	.	.	8b-'\	.	8dd'\	.	.	.	.	.	.	.	.	.	.	.	.	.	.	.	.	.	.
4A-X\	4 2	.	4f'\	.	8b-'\	.	8dd'\	.	4A-X\	-gnus	4f\	-gnus	4b-\	-gnus	4dd\	-gnus	.	4r	.	4r	.	.	.	.	.
.	.	.	.	.	8b-'\J)	.	8dd'\J)	.	.	.	.	.	.	.	.	.	.	.	.	.	.	.	.	.	.
!	!	!	!	!	!	!	!	!	!	!	!	!	!	!	!	!	!	!	!	!LO:LB:g=original	!	!	!	!LO:LB:g=original	!
=51	=51	=51	=51	=51	=51	=51	=51	=51	=51	=51	=51	=51	=51	=51	=51	=51	=51	=51	=51	=51	=51	=51	=51	=51	=51
*	*	*	*	*	*tremolo	*	*	*	*	*	*	*	*	*	*	*	*	*	*	*	*	*	*	*	*
!	!	!	!	!	!LO:TX:t=......	!	!	!	!	!	!	!	!	!	!	!	!	!LO:TX:a:t=6	!	!LO:TX:a:t=6	!	!	!	!	!
4G\	6 3	.	4g'\	.	(8b-'\L	.	(8ee-X'\L	.	2G\	De-	2g\	De-	2b-\	De-	2ee-\	De-	.	0.r	.	0.r	.	2.b-\	.	2.ee-\	.
.	.	.	.	.	8b-'\	.	8ee-'\J	.	.	.	.	.	.	.	.	.	.	.	.	.	.	.	.	.	.
*	*	*	*	*	*	*	*tremolo	*	*	*	*	*	*	*	*	*	*	*	*	*	*	*	*	*	*
!	!	!	!	!	!	!	!LO:TX:t=....	!	!	!	!	!	!	!	!	!	!	!	!	!	!	!	!	!	!
4G\	.	.	4g'\	.	8b-'\	.	8ee-'\L	.	.	.	.	.	.	.	.	.	.	.	.	.	.	.	.	.	.
.	.	.	.	.	8b-'\	.	8ee-'\	.	.	.	.	.	.	.	.	.	.	.	.	.	.	.	.	.	.
4G\	.	.	4g'\	.	8b-'\	.	8ee-'\	.	4G\	-i	4G/	-i	4b-\	-i	4ee-\	-i	.	.	.	.	.	.	.	.	.
.	.	.	.	.	8b-'\J)	.	8ee-'\)J	.	.	.	.	.	.	.	.	.	.	.	.	.	.	.	.	.	.
*	*	*	*	*	*	*	*Xtremolo	*	*	*	*	*	*	*	*	*	*	*	*	*	*	*	*	*	*
!	!	!	!	!	!	!	!	!	!	!	!	!	!LO:LB:g=original	!	!	!	!	!	!	!	!	!	!	!	!
=52	=52	=52	=52	=52	=52	=52	=52	=52	=52	=52	=52	=52	=52	=52	=52	=52	=52	=52	=52	=52	=52	=52	=52	=52	=52
!	!	!	!	!	!LO:TX:t=......	!	!	!	!	!	!	!	!	!	!	!	!	!	!	!	!	!	!	!	!
4G-X\	6| 3	.	4g-X'\	.	(8b-'\L	.	(8een'\L	.	2G-X\	qui	2.G-X/	qui	2.b-\	qui	2.een\	qui	.	.	.	.	.	2.b-\	.	2.eeX\	.
.	.	.	.	.	8b-'\	.	8ee'\J	.	.	.	.	.	.	.	.	.	.	.	.	.	.	.	.	.	.
*	*	*	*	*	*	*	*tremolo	*	*	*	*	*	*	*	*	*	*	*	*	*	*	*	*	*	*
!	!	!	!	!	!	!	!LO:TX:t=....	!	!	!	!	!	!	!	!	!	!	!	!	!	!	!	!	!	!
4G-\	.	.	4g-'\	.	8b-'\	.	8ee'\L	.	.	.	.	.	.	.	.	.	.	.	.	.	.	.	.	.	.
.	.	.	.	.	8b-'\	.	8ee'\	.	.	.	.	.	.	.	.	.	.	.	.	.	.	.	.	.	.
4G-\	.	.	4g-'\	.	8b-'\	.	8ee'\	.	4G-\	qui	.	.	.	.	.	.	.	.	.	.	.	.	.	.	.
.	.	.	.	.	8b-'\)J	.	8ee'\)J	.	.	.	.	.	.	.	.	.	.	.	.	.	.	.	.	.	.
*	*	*	*	*	*	*	*Xtremolo	*	*	*	*	*	*	*	*	*	*	*	*	*	*	*	*	*	*
!	!	!	!	!	!	!	!LO:LB:g=original	!	!	!	!	!	!	!	!	!	!	!	!	!	!	!	!	!	!
=53	=53	=53	=53	=53	=53	=53	=53	=53	=53	=53	=53	=53	=53	=53	=53	=53	=53	=53	=53	=53	=53	=53	=53	=53	=53
!	!	!	!	!	!LO:TX:b:t=......	!	!	!	!	!	!	!	!	!	!	!	!	!	!	!	!	!	!	!	!
4F\	8 3	.	4c\	.	(8a'/L	.	(8ff'\L	.	2F\	tol-	2c\	tol-	2a\	tol-	2ff\	tol-	.	.	.	.	.	2.a\	.	2.ff\	.
.	.	.	.	.	8a'/	.	8ff'\J	.	.	.	.	.	.	.	.	.	.	.	.	.	.	.	.	.	.
*	*	*	*	*	*	*	*tremolo	*	*	*	*	*	*	*	*	*	*	*	*	*	*	*	*	*	*
!	!	!	!	!	!	!	!LO:TX:t=....	!	!	!	!	!	!	!	!	!	!	!	!	!	!	!	!	!	!
4F\	.	.	4c\	.	8a'/	.	8ff'\L	.	.	.	.	.	.	.	.	.	.	.	.	.	.	.	.	.	.
.	.	.	.	.	8a'/	.	8ff'\	.	.	.	.	.	.	.	.	.	.	.	.	.	.	.	.	.	.
4F\	.	.	4c\	.	8a'/	.	8ff'\	.	4F\	-lis	4c\	-lis	4a\	-lis	4ff\	-lis	.	.	.	.	.	.	.	.	.
.	.	.	.	.	8a'/)J	.	8ff'\)J	.	.	.	.	.	.	.	.	.	.	.	.	.	.	.	.	.	.
*	*	*	*	*	*	*	*Xtremolo	*	*	*	*	*	*	*	*	*	*	*	*	*	*	*	*	*	*
!LO:LB:g=original	!	!	!	!	!	!	!	!	!LO:LB:g=original	!	!	!	!	!	!	!	!	!	!	!	!	!	!	!	!
=54	=54	=54	=54	=54	=54	=54	=54	=54	=54	=54	=54	=54	=54	=54	=54	=54	=54	=54	=54	=54	=54	=54	=54	=54	=54
!	!	!	!	!	!LO:TX:b:t=......	!	!	!	!	!	!	!	!	!	!	!	!	!	!	!	!	!	!	!	!
4E-\	-3 4	.	4c\	.	(8a'/L	.	(8gg-X'\L	.	2.E-\	pec-	2.c\	pec-	2.a\	pec-	2.gg-X\	pec-	.	.	.	.	.	2.a\	.	2.gg-X\	.
.	.	.	.	.	8a'/	.	8gg-'\J	.	.	.	.	.	.	.	.	.	.	.	.	.	.	.	.	.	.
*	*	*	*	*	*	*	*tremolo	*	*	*	*	*	*	*	*	*	*	*	*	*	*	*	*	*	*
!	!	!	!	!	!	!	!LO:TX:t=....	!	!	!	!	!	!	!	!	!	!	!	!	!	!	!	!	!	!
4E-\	.	.	4c\	.	8a'/	.	8gg-'\L	.	.	.	.	.	.	.	.	.	.	.	.	.	.	.	.	.	.
.	.	.	.	.	8a'/	.	8gg-'\	.	.	.	.	.	.	.	.	.	.	.	.	.	.	.	.	.	.
4E-\	.	.	4c\	.	8a'/	.	8gg-'\	.	.	.	.	.	.	.	.	.	.	.	.	.	.	.	.	.	.
.	.	.	.	.	8a'/)J	.	8gg-'\)J	.	.	.	.	.	.	.	.	.	.	.	.	.	.	.	.	.	.
*	*	*	*	*	*	*	*Xtremolo	*	*	*	*	*	*	*	*	*	*	*	*	*	*	*	*	*	*
=55	=55	=55	=55	=55	=55	=55	=55	=55	=55	=55	=55	=55	=55	=55	=55	=55	=55	=55	=55	=55	=55	=55	=55	=55	=55
!	!	!	!	!	!LO:TX:t=......	!	!	!	!	!	!	!	!	!	!	!	!	!	!	!	!	!	!	!	!
4D-X\	3 6	.	4d-X\	.	(8b-'\L	.	(8ff'\L	.	2D-X\	-ca-	2d-X\	-ca-	2b-\	-ca-	2ff\	-ca-	.	1.r	.	1.r	.	2.b-\	.	2.ff\	.
.	.	.	.	.	8b-'\	.	8ff'\J	.	.	.	.	.	.	.	.	.	.	.	.	.	.	.	.	.	.
*	*	*	*	*	*	*	*tremolo	*	*	*	*	*	*	*	*	*	*	*	*	*	*	*	*	*	*
!	!	!	!	!	!	!	!LO:TX:t=....	!	!	!	!	!	!	!	!	!	!	!	!	!	!	!	!	!	!
4D-\	.	.	4d-\	.	8b-'\	.	8ff'\L	.	.	.	.	.	.	.	.	.	.	.	.	.	.	.	.	.	.
.	.	.	.	.	8b-'\	.	8ff'\	.	.	.	.	.	.	.	.	.	.	.	.	.	.	.	.	.	.
4D-\	.	.	4d-\	.	8b-'\	.	8ff'\	.	4D-\	-ta	4d-\	-ta	4b-\	-ta	4ff\	-ta	.	.	.	.	.	.	.	.	.
.	.	.	.	.	8b-'\)J	.	8ff'\)J	.	.	.	.	.	.	.	.	.	.	.	.	.	.	.	.	.	.
!	!	!	!	!	!LO:LB:g=original	!	!	!	!	!	!	!	!	!	!	!	!	!	!	!	!	!	!	!	!
=56	=56	=56	=56	=56	=56	=56	=56	=56	=56	=56	=56	=56	=56	=56	=56	=56	=56	=56	=56	=56	=56	=56	=56	=56	=56
!	!	!	!	!	!LO:TX:t=....	!	!LO:TX:t=....	!	!	!	!	!	!	!	!	!	!	!	!	!	!	!	!	!	!
4C/	3	.	4f\	.	(8cc'\L	.	(8ee-X'\L	.	(4C/	mun-	(2f\	mun-	(2cc\	mun-	(2ee-\	mun-	.	.	.	.	.	2a\	.	2ee-X\	.
.	.	.	.	.	8cc'\	.	8ee-X'\	.	.	.	.	.	.	.	.	.	.	.	.	.	.	.	.	.	.
4AAn/	.	.	4f\	.	8cc'\	.	8ee-X'\	.	4An\	.	.	.	.	.	.	.	.	.	.	.	.	.	.	.	.
.	.	.	.	.	8cc'\J	.	8ee-X'\J	.	.	.	.	.	.	.	.	.	.	.	.	.	.	.	.	.	.
*	*	*	*	*	*Xtremolo	*	*Xtremolo	*	*	*	*	*	*	*	*	*	*	*	*	*	*	*	*	*	*
4BB-/	-3	.	4f\	.	8b-'\L	.	8dd-X'\L	.	4B-\)	.	4f\)	.	4b-\)	.	4dd-X\)	.	.	.	.	.	.	4b-\	.	4dd-X\	.
.	.	.	.	.	8b-'\J)	.	8dd-'\J)	.	.	.	.	.	.	.	.	.	.	.	.	.	.	.	.	.	.
!	!	!	!LO:LB:g=original	!	!	!	!	!	!	!	!	!	!	!	!	!	!	!LO:PB:g=original	!	!	!	!	!	!	!
=57	=57	=57	=57	=57	=57	=57	=57	=57	=57	=57	=57	=57	=57	=57	=57	=57	=57	=57	=57	=57	=57	=57	=57	=57	=57
*	*	*	*	*	*tremolo	*	*	*	*	*	*	*	*	*	*	*	*	*	*	*	*	*	*	*	*
!	!	!	!	!	!LO:TX:b:t=......	!LO:DY:a	!	!	!	!	!	!	!	!	!	!	!	!	!	!	!	!	!	!	!
4FF/	5_ 3_	.	4f\	.	(8a'/L	p	(8cc'\L	p	4F\	-di	4f\	-di	4a\	-di	4cc\	-di	.	4F/	.	4f/	.	2.a\	p	2.cc\	p
.	.	.	.	.	8a'/	.	8cc'\J	.	.	.	.	.	.	.	.	.	.	.	.	.	.	.	.	.	.
*	*	*	*	*	*	*	*tremolo	*	*	*	*	*	*	*	*	*	*	*	*	*	*	*	*	*	*
!	!	!	!	!	!	!	!LO:TX:t=....	!	!	!	!	!	!	!	!	!	!	!	!	!	!	!	!	!	!
4r	.	.	4r	.	8a'/	.	8cc'\L	.	4r	.	4r	.	4r	.	4r	.	.	4r	.	4r	.	.	.	.	.
.	.	.	.	.	8a'/	.	8cc'\	.	.	.	.	.	.	.	.	.	.	.	.	.	.	.	.	.	.
4F\	x x	.	4f\	.	8a'/	.	8cc'\	.	4r	.	4r	.	4r	.	4r	.	.	4r	.	4r	.	.	.	.	.
.	.	.	.	.	8a'/J)	.	8cc'\)J	.	.	.	.	.	.	.	.	.	.	.	.	.	.	.	.	.	.
*	*	*	*	*	*	*	*Xtremolo	*	*	*	*	*	*	*	*	*	*	*	*	*	*	*	*	*	*
!	!	!	!	!	!	!	!	!	!	!	!LO:LB:g=original	!	!	!	!	!	!	!	!	!	!	!	!	!	!
=58	=58	=58	=58	=58	=58	=58	=58	=58	=58	=58	=58	=58	=58	=58	=58	=58	=58	=58	=58	=58	=58	=58	=58	=58	=58
!	!	!	!	!	!LO:TX:t=......	!LO:DY:t=for	!	!LO:DY:t=fort	!	!	!	!	!	!	!	!	!	!LO:TX:t=P:problem:takt niewidoczny - zalanie karty	!	!	!	!	!LO:DY:t=f&colon;	!	!LO:DY:t=for
4G-X\	-5_ 3_	.	(4g-X\	.	(8b-'\L	f	(8dd-X'\L	f	(4G-X\	do-	(4G-X/	do-	2.b-\	Do-	2.dd-X\	do-	.	2.F/yy	.	2.r	.	2.b-\	f	2.dd-X\	f
.	.	.	.	.	8b-'\	.	8dd-'\J	.	.	.	.	.	.	.	.	.	.	.	.	.	.	.	.	.	.
*	*	*	*	*	*	*	*tremolo	*	*	*	*	*	*	*	*	*	*	*	*	*	*	*	*	*	*
!	!	!	!	!	!	!	!LO:TX:t=....	!	!	!	!	!	!	!	!	!	!	!	!	!	!	!	!	!	!
4F\	.	.	4f\	.	8b-'\	.	8dd-'\L	.	4F\	.	4F/	.	.	.	.	.	.	.	.	.	.	.	.	.	.
.	.	.	.	.	8b-'\	.	8dd-'\	.	.	.	.	.	.	.	.	.	.	.	.	.	.	.	.	.	.
4En\	x x	.	4en\)	.	8b-'\	.	8dd-'\	.	4En\)	.	4En/)	.	.	.	.	.	.	.	.	.	.	.	.	.	.
.	.	.	.	.	8b-'\)J	.	8dd-'\)J	.	.	.	.	.	.	.	.	.	.	.	.	.	.	.	.	.	.
*	*	*	*	*	*	*	*Xtremolo	*	*	*	*	*	*	*	*	*	*	*	*	*	*	*	*	*	*
=59	=59	=59	=59	=59	=59	=59	=59	=59	=59	=59	=59	=59	=59	=59	=59	=59	=59	=59	=59	=59	=59	=59	=59	=59	=59
!	!	!	!	!	!LO:TX:t=......	!	!	!	!	!	!	!	!	!	!	!	!	!	!	!LO:TX:a:t=1	!	!	!LO:DY:t=p&colon;	!	!LO:DY:t=p
4F\	5_ 3_	.	4f\	.	(8a'\L	p	(8cc'\L	p	4F\	-na	4F/	-na	4a\	-na	4cc\	-na	.	4F/	.	4f/	.	2.a\	p	2.cc\	p
.	.	.	.	.	8a'\	.	8cc'\J	.	.	.	.	.	.	.	.	.	.	.	.	.	.	.	.	.	.
*	*	*	*	*	*	*	*tremolo	*	*	*	*	*	*	*	*	*	*	*	*	*	*	*	*	*	*
!	!	!	!	!	!	!	!LO:TX:t=....	!	!	!	!	!	!	!	!	!	!	!	!	!	!	!	!	!	!
4r	.	.	4r	.	8a'\	.	8cc'\L	.	4r	.	4r	.	4r	.	4r	.	.	4r	.	4r	.	.	.	.	.
.	.	.	.	.	8a'\	.	8cc'\	.	.	.	.	.	.	.	.	.	.	.	.	.	.	.	.	.	.
4F\	x x	.	4f\	.	8a'\	.	8cc'\	.	4r	.	4r	.	4r	.	4r	.	.	4r	.	4r	.	.	.	.	.
.	.	.	.	.	8a'\)J	.	8cc'\)J	.	.	.	.	.	.	.	.	.	.	.	.	.	.	.	.	.	.
*	*	*	*	*	*	*	*Xtremolo	*	*	*	*	*	*	*	*	*	*	*	*	*	*	*	*	*	*
=60	=60	=60	=60	=60	=60	=60	=60	=60	=60	=60	=60	=60	=60	=60	=60	=60	=60	=60	=60	=60	=60	=60	=60	=60	=60
!	!	!	!	!	!	!LO:DY:t=fort	!	!LO:DY:t=fort	!	!	!	!	!	!	!	!	!	!LO:TX:a:t=1	!	!LO:TX:a:t=1	!	!	!LO:DY:t=f&colon;	!	!LO:DY:t=f
4G-X\	-5_ 3_	.	(4g-X\	.	(8b-'\L	f	(8dd-X'\L	f	(4G-X\	no-	(>4G-X/	no-	2.b-\	no-	2.dd-X\	no-	.	2.r	.	2.r	.	2.b-\	f	2.dd-X\	f
.	.	.	.	.	8b-'\	.	8dd-'\J	.	.	.	.	.	.	.	.	.	.	.	.	.	.	.	.	.	.
*	*	*	*	*	*	*	*tremolo	*	*	*	*	*	*	*	*	*	*	*	*	*	*	*	*	*	*
4F\	.	.	4f\	.	8b-'\	.	8dd-X'\L)	.	4F\	.	4F/	.	.	.	.	.	.	.	.	.	.	.	.	.	.
.	.	.	.	.	8b-'\	.	8dd-'\	.	.	.	.	.	.	.	.	.	.	.	.	.	.	.	.	.	.
4En\	x x	.	4en\)	.	8b-'\	.	8dd-'\	.	4En\)	.	4En/)	.	.	.	.	.	.	.	.	.	.	.	.	.	.
.	.	.	.	.	8b-'\J)	.	8dd-'\J	.	.	.	.	.	.	.	.	.	.	.	.	.	.	.	.	.	.
*	*	*	*	*	*Xtremolo	*	*Xtremolo	*	*	*	*	*	*	*	*	*	*	*	*	*	*	*	*	*	*
!	!	!	!	!	!	!	!LO:LB:g=original	!	!	!	!	!	!	!	!	!	!	!	!	!	!	!	!	!	!
=61	=61	=61	=61	=61	=61	=61	=61	=61	=61	=61	=61	=61	=61	=61	=61	=61	=61	=61	=61	=61	=61	=61	=61	=61	=61
4F\	5 3	.	4f\	p	(4.a\	p	4.cc\	p	4F\	-bis	4F/	-bis	4a\	-bis	4cc\	-bis	.	2f/	p	2f/	p	4a\	.	4cc\	.
4FF/	.	.	4f\	.	.	.	.	.	4r	.	4r	.	4r	.	4r	.	.	.	.	.	.	4r	.	4r	.
.	.	.	.	.	8b-\	.	(8dd-X\	.	.	.	.	.	.	.	.	.	.	.	.	.	.	.	.	.	.
!	!	!	!	!	!	!	!	!	!	!	!	!	!	!	!	!	!LO:DY:a:color=red:rj	!	!	!	!	!	!	!	!
4r	.	.	4f\	.	8a\L	.	8cc\L	.	4F\	pa-	4f\	pa-	4b-\	pa-	4dd-X\	pa-	pp	4f/	.	4f/	.	4r	.	4r	.
.	.	.	.	.	8b-\J)	.	8dd-\J)	.	.	.	.	.	.	.	.	.	.	.	.	.	.	.	.	.	.
=62	=62	=62	=62	=62	=62	=62	=62	=62	=62	=62	=62	=62	=62	=62	=62	=62	=62	=62	=62	=62	=62	=62	=62	=62	=62
!	!	!	!	!	!	!	!	!	!	!	!	!	!	!	!	!	!	!	!	!	!	!LO:TX:a:t=3	!	!LO:TX:a:t=3	!
4F\	5 3	.	4f\	<	(4.a\	<	4.cc\	<	4F\	-cem	4f\	-cem	4a\	-cem	4cc\	-cem	.	2f/	.	2f/	.	1.r	.	1.r	.
4FF/	.	.	4f\	.	.	.	.	.	4r	.	4r	.	4r	.	4r	.	.	.	.	.	.	.	.	.	.
.	.	.	.	.	8b-\L	.	(8dd-X\L	.	.	.	.	.	.	.	.	.	.	.	.	.	.	.	.	.	.
4r	.	.	4f\	[	8a\	.	8cc\	[	4r	.	4r	.	4r	.	4r	.	.	4f/	.	4f/	.	.	.	.	.
.	.	.	.	.	8b-\J)	[	8een\J)	.	.	.	.	.	.	.	.	.	.	.	.	.	.	.	.	.	.
=63	=63	=63	=63	=63	=63	=63	=63	=63	=63	=63	=63	=63	=63	=63	=63	=63	=63	=63	=63	=63	=63	=63	=63	=63	=63
!	!	!LO:DY:rj	!	!	!	!	!	!	!LO:TX:a:t=2	!	!LO:TX:a:t=2	!	!LO:TX:a:t=2	!	!LO:TX:a:t=2	!	!	!	!	!	!	!	!	!	!
4F\	.	pp	4f\	pp	4a'/	pp	4ff'\	pp	1.r	.	1.r	.	1.r	.	1.r	.	.	4f/	pp	4f/	.	.	.	.	.
4FF/	.	.	4c\	.	4a'/	.	4ff'\	.	.	.	.	.	.	.	.	.	.	4f/	.	4cc\	pp	.	.	.	.
4FF/	.	.	4c\	.	4a'/	.	4ff'\	.	.	.	.	.	.	.	.	.	.	4f/	.	4cc\	.	.	.	.	.
=64	=64	=64	=64	=64	=64	=64	=64	=64	=64	=64	=64	=64	=64	=64	=64	=64	=64	=64	=64	=64	=64	=64	=64	=64	=64
2FF/	.	.	2c\	.	2a'/	.	2ff'\	.	.	.	.	.	.	.	.	.	.	2f/	.	2cc\	.	2.r	.	2.r	.
4r	.	.	4r	.	4r	.	4r	.	.	.	.	.	.	.	.	.	.	4r	.	4r	.	.	.	.	.
==	==	==	==	==	==	==	==	==	==	==	==	==	==	==	==	==	==	==	==	==	==	==	==	==	==
*-	*-	*-	*-	*-	*-	*-	*-	*-	*-	*-	*-	*-	*-	*-	*-	*-	*-	*-	*-	*-	*-	*-	*-	*-	*-
!!!system-decoration: [(g1)][(g2)][(g3)][(g4)]s12
!!!ENC: Solarz Mateusz
!!!END: 2020-11-04
!!!RDF**dynam: f = "forto"
!!!RDF**dynam: p = "pia"
!!!RDF**kern: | = vertical stroke
!!!RDF**kern: > = above
!!!RDF**kern: < = below
